icon-themes/breeze_svg/cmd/sc_extendedhelp.svg

<svg xmlns="http://www.w3.org/2000/svg" viewBox="0 0 16 16">
     />
 <path 
     style="fill:#4d4d4d" 
     d="M 2 2 L 2 14 L 14 14 L 14 2 L 2 2 z M 3 3 L 13 3 L 13 13 L 3 13 L 3 3 z M 7.5 4 L 7.5 5 L 8.5 5 L 8.5 4 L 7.5 4 z M 7.5 6 L 7.5 12 L 8.5 12 L 8.5 6 L 7.5 6 z "
     />
 </svg>

<svg viewBox="0 0 16 16" xmlns="http://www.w3.org/2000/svg">/&gt;<path d="m2 2v12h12v-12zm1 1h10v10h-10zm4.5 1v1h1v-1zm0 2v6h1v-6z" fill="#4d4d4d"/></svg>
